Sources/FrostedUI/Resources/Icons.xcassets/checkmarkCircle24.imageset/checkmark-circle-24.svg

<svg width="24" height="24" viewBox="0 0 24 24" fill="none" xmlns="http://www.w3.org/2000/svg" data-fui-icon="true">
  <path
    d="M12.0005 2.00037C17.5232 2.00056 22.0005 6.47764 22.0005 12.0004C22.0003 17.5229 17.523 22.0002 12.0005 22.0004C6.47776 22.0004 2.00069 17.523 2.00049 12.0004C2.00049 6.47752 6.47764 2.00037 12.0005 2.00037ZM12.0005 3.50037C7.30607 3.50037 3.50049 7.30595 3.50049 12.0004C3.50069 16.6946 7.30619 20.5004 12.0005 20.5004C16.6946 20.5002 20.5003 16.6945 20.5005 12.0004C20.5005 7.30607 16.6947 3.50056 12.0005 3.50037ZM15.2202 9.0697C15.5131 8.777 15.9879 8.77687 16.2808 9.0697C16.5734 9.36254 16.5734 9.8374 16.2808 10.1302L11.0308 15.3802C10.7379 15.6731 10.2631 15.673 9.97021 15.3802L7.72021 13.1302C7.42732 12.8374 7.42732 12.3626 7.72021 12.0697C8.01312 11.777 8.48793 11.7769 8.78076 12.0697L10.5005 13.7894L15.2202 9.0697Z"
    fill="currentColor"
  />
</svg>

<svg xmlns="http://www.w3.org/2000/svg" width="24" height="24" fill="none" data-fui-icon="true" viewBox="0 0 24 24"><path fill="currentColor" d="M12 2c5.523 0 10 4.478 10 10s-4.477 10-10 10S2 17.523 2 12 6.478 2 12 2m0 1.5a8.5 8.5 0 1 0 0 17 8.5 8.5 0 0 0 0-17m3.22 5.57a.75.75 0 0 1 1.06 1.06l-5.25 5.25a.75.75 0 0 1-1.06 0l-2.25-2.25a.75.75 0 1 1 1.06-1.06l1.72 1.72z"/></svg>
